packages/icons/svg/Fill/route.svg

<svg fill="none" height="24" viewBox="0 0 24 24" width="24" xmlns="http://www.w3.org/2000/svg"><path clip-rule="evenodd" d="m22 4c0 1.65685-1.3431 3-3 3-1.3075 0-2.4197-.83646-2.8305-2.00346l-.0127-.00034c-.0852-.00224-.2121-.00493-.3747-.00654-.3255-.00323-.793-.00215-1.3549.01529-1.1279.03502-2.6173.13546-4.0946.39317-1.49457.26072-2.89172.66848-3.88996 1.27206-.97586.59005-1.44264 1.27607-1.44264 2.13045 0 .55341.15896.88858.37993 1.12839.24353.26428.64237.49758 1.25181.68088 1.23284.3707 2.91873.4291 4.80946.4946l.0935.0033c1.832.0635 3.8686.1389 5.4423.6719.8062.273 1.5749.6914 2.1421 1.3623.5827.6892.8809 1.5598.8809 2.5916 0 1.7502-.9397 2.9662-2.1864 3.7502-1.2043.7574-2.74 1.1512-4.1683 1.3609-1.4463.2123-2.8788.249-3.94041.2343-.33718-.0047-.63915-.0146-.89491-.026-.42643 1.1374-1.52366 1.947-2.80998 1.947-1.65685 0-3-1.3431-3-3s1.34315-3 3-3c1.32581 0 2.45075.86 2.84735 2.0527.2476.0115.54711.0218.88526.0265 1.00089.0138 2.31839-.0219 3.62209-.2133 1.3217-.194 2.536-.5354 3.3942-1.0751.8159-.5131 1.2511-1.1561 1.2511-2.0572 0-.6247-.1706-1.0193-.4082-1.3003-.2531-.2994-.6563-.5561-1.2563-.7593-1.2388-.4195-2.9522-.5009-4.8702-.5674l-.2522-.0087c-1.75457-.0599-3.6696-.1253-5.15736-.5728-.79679-.2396-1.56983-.6149-2.14661-1.2408-.59934-.6504-.90913-1.48725-.90913-2.48367 0-1.79595 1.0734-3.03507 2.40781-3.84192 1.31203-.79332 2.99523-1.2542 4.58106-1.53084 1.60303-.27963 3.19403-.38525 4.37633-.42196.5932-.01841 1.0883-.01961 1.4367-.01615.1528.00151.2776.00393.3702.00619.413-1.16308 1.5232-1.99595 2.8279-1.99595 1.6569 0 3 1.34315 3 3z" fill="#6b7280" fill-rule="evenodd"/></svg>

<svg width="24" height="24" viewBox="0 0 24 24" fill="none" xmlns="http://www.w3.org/2000/svg">
<path fill-rule="evenodd" clip-rule="evenodd" d="M22 4C22 5.65685 20.6569 7 19 7C17.6925 7 16.5803 6.16354 16.1695 4.99654L16.1568 4.9962C16.0716 4.99396 15.9447 4.99127 15.7821 4.98966C15.4566 4.98643 14.9891 4.9875 14.4272 5.00495C13.2993 5.03997 11.8099 5.14041 10.3326 5.39812C8.83803 5.65884 7.44088 6.0666 6.44264 6.67018C5.46678 7.26023 5 7.94625 5 8.80063C5 9.35404 5.15896 9.68921 5.37993 9.92902C5.62346 10.1933 6.0223 10.4266 6.63174 10.6099C7.86458 10.9806 9.55047 11.039 11.4412 11.1045L11.5347 11.1078C13.3667 11.1713 15.4033 11.2467 16.977 11.7797C17.7832 12.0527 18.5519 12.4711 19.1191 13.142C19.7018 13.8312 20 14.7018 20 15.7336C20 17.4838 19.0603 18.6998 17.8136 19.4838C16.6093 20.2412 15.0736 20.635 13.6453 20.8447C12.199 21.057 10.7665 21.0937 9.70489 21.079C9.36771 21.0743 9.06574 21.0644 8.80998 21.053C8.38355 22.1904 7.28632 23 6 23C4.34315 23 3 21.6569 3 20C3 18.3431 4.34315 17 6 17C7.32581 17 8.45075 17.86 8.84735 19.0527C9.09495 19.0642 9.39446 19.0745 9.73261 19.0792C10.7335 19.093 12.051 19.0573 13.3547 18.8659C14.6764 18.6719 15.8907 18.3305 16.7489 17.7908C17.5648 17.2777 18 16.6347 18 15.7336C18 15.1089 17.8294 14.7143 17.5918 14.4333C17.3387 14.1339 16.9355 13.8772 16.3355 13.674C15.0967 13.2545 13.3833 13.1731 11.4653 13.1066L11.2131 13.0979C9.45853 13.038 7.5435 12.9726 6.05574 12.5251C5.25895 12.2855 4.48591 11.9102 3.90913 11.2843C3.30979 10.6339 3 9.79705 3 8.80063C3 7.00468 4.0734 5.76556 5.40781 4.95871C6.71984 4.16539 8.40304 3.70451 9.98887 3.42787C11.5919 3.14824 13.1829 3.04262 14.3652 3.00591C14.9584 2.9875 15.4535 2.9863 15.8019 2.98976C15.9547 2.99127 16.0795 2.99369 16.1721 2.99595C16.5851 1.83287 17.6953 1 19 1C20.6569 1 22 2.34315 22 4ZM6.99997 19.9923C6.99584 19.4436 6.54972 19 6 19C5.44772 19 5 19.4477 5 20C5 20.5523 5.44772 21 6 21C6.54932 21 6.99519 20.5571 6.99996 20.0089C6.99992 20.0034 6.99992 19.9978 6.99997 19.9923Z" fill="#000000"/>
</svg>
